svgs/andronix.svg

<svg width="192" height="192" viewBox="0 0 192 192" fill="none" xmlns="http://www.w3.org/2000/svg">
<path d="M54 157.897V96.134C75.2082 117.587 82.5627 132.007 83.2895 164.264C81.3793 173.815 54 171.268 54 157.897Z" stroke="black" stroke-width="12" stroke-linejoin="round"/>
<path d="M138.048 157.897V96.134C116.84 117.587 109.486 132.007 108.759 164.264C110.669 173.815 138.048 171.268 138.048 157.897Z" stroke="black" stroke-width="12" stroke-linejoin="round"/>
<path d="M96.0241 108.232L105.95 93.9054H86.0985L96.0241 108.232Z" stroke="black" stroke-width="8" stroke-linejoin="round"/>
<path d="M117.5 83C121.642 83 125 79.4183 125 75C125 74.3094 124.918 73.6392 124.764 73L117.5 75L119.5 67.2876C118.863 67.1001 118.193 67 117.5 67C113.358 67 110 70.5817 110 75C110 79.4183 113.358 83 117.5 83Z" stroke="black" stroke-width="6" stroke-linejoin="round"/>
<path d="M74.5 83C78.6421 83 82 79.4183 82 75C82 74.3094 81.918 73.6392 81.7637 73L74.5 75L76.5 67.2876C75.8633 67.1001 75.1926 67 74.5 67C70.3579 67 67 70.5817 67 75C67 79.4183 70.3579 83 74.5 83Z" stroke="black" stroke-width="6" stroke-linejoin="round"/>
<path d="M96.0241 70.7227C96.0241 60.4927 106.007 52.1997 118.322 52.1997C126.879 52.1997 134.31 56.5121 138.048 62.3874C131.006 44.4041 114.828 31.8244 95.9957 31.8244C77.2143 31.8244 61.0725 44.3367 54 62.2429C57.7386 56.3676 65.1695 52.1997 73.7261 52.1997C86.041 52.1997 96.0241 60.4927 96.0241 70.7227ZM96.0241 70.7227V72.575" stroke="black" stroke-width="12" stroke-linecap="round" stroke-linejoin="round"/>
<path d="M92.8405 31.8244V21M98.571 31.8244L104.302 24.8204" stroke="black" stroke-width="10" stroke-linecap="round" stroke-linejoin="round"/>
</svg>

<svg xmlns="http://www.w3.org/2000/svg" width="192" height="192" fill="none" viewBox="0 0 192 192"><path stroke="#000" stroke-linejoin="round" stroke-width="12" d="M54 157.897V96.134c21.208 21.453 28.563 35.873 29.29 68.13-1.91 9.551-29.29 7.004-29.29-6.367Zm84.048 0V96.134c-21.208 21.453-28.562 35.873-29.289 68.13 1.91 9.551 29.289 7.004 29.289-6.367Z"/><path stroke="#000" stroke-linejoin="round" stroke-width="8" d="m96.024 108.232 9.926-14.327H86.098l9.926 14.327Z"/><path stroke="#000" stroke-linejoin="round" stroke-width="6" d="M117.5 83c4.142 0 7.5-3.582 7.5-8 0-.69-.082-1.36-.236-2l-7.264 2 2-7.712a7.066 7.066 0 0 0-2-.288c-4.142 0-7.5 3.582-7.5 8s3.358 8 7.5 8Zm-43 0c4.142 0 7.5-3.582 7.5-8 0-.69-.082-1.36-.236-2L74.5 75l2-7.712a7.067 7.067 0 0 0-2-.288c-4.142 0-7.5 3.582-7.5 8s3.358 8 7.5 8Z"/><path stroke="#000" stroke-linecap="round" stroke-linejoin="round" stroke-width="12" d="M96.024 70.723c0-10.23 9.983-18.523 22.298-18.523 8.557 0 15.988 4.312 19.726 10.187-7.042-17.983-23.22-30.563-42.052-30.563-18.782 0-34.923 12.513-41.996 30.419C57.739 56.368 65.17 52.2 73.726 52.2c12.315 0 22.298 8.293 22.298 18.523Zm0 0v1.852"/><path stroke="#000" stroke-linecap="round" stroke-linejoin="round" stroke-width="10" d="M92.84 31.824V21m5.731 10.824 5.731-7.004"/></svg>
